X:1
T:Title
%%score [ 1 2 ]
L:1/8
Q:1/4=120
M:3/4
K:F
V:1 treble nm="MusicXML Part"
V:2 treble nm="MusicXML Part"
V:1
"^Der Strauss (1835)" A2 | c3 A Bc | e>d c2 f>d | %3
w: Der|Strauss, den ich ge-|pflü * cket, grü- sse|
 c3 A B"^Fanny Hensel (1805-1847)\nJ.W. von Goethe (1749-1832)"c | A2 z2 c>A | G2 GG A=B | %6
w: dich viel- tau- send-|mal! Ich *|ha- be mich oft ge-|
 c>d e2 e>c | A2 z2 f>d | =B2 z c e d/c/ | c2 z2 d2 | (c2 B)A Bc | d>B A2 B2 | (d2 c)B cd | %13
w: bü * cket, ach *|wohl, ach *|wohl ein- tau- send *|mal und|ihn * ans Herz ge-|drü * cket und|ihn * ans Herz ge-|
 f>_e d2 z2 | z f ed c=B | (B6- | B2 A2) G2 | F2 z ^F GA | (B3 dcB | g3 e) cB | A2 z2 f2 | %21
w: drü * cket,|wie hun * dert *|tau|* * send-|mal, wie hun- dert-|tau * * *|* * send *|mal, wie|
 c>B A2 G2 | !fermata!F2 z2 |] %23
w: hun- dert- tau- send-|mal.|
V:2
 F2 | A3 F GA | B2 A2 d>B | A3 F GE | F2 z2 F2 | F>D =B,F FF | E>G c2 G>E | F2 z2 D>F | %8
w: ||||||||
 G2 z E G F/E/ | E2 z2 ^F2 | (A2 G)^F GA | B>G ^F2 G2 | (B2 A)G AB | A2 B2 z2 | z6 | z A GF ED | %16
w: |||||||wie hun * dert *|
 ^C4 C2 | D2 z D E^F | GAGFED | EGcB AG | F2 z2 A2 | A>G F2 C2 | !fermata!A,2 z2 |] %23
w: tau- send-|mal, wie hun- dert-||||||

